outputs/icons/date_time/clock_segment_round.svg

<svg xmlns="http://www.w3.org/2000/svg" width="1200" height="1200" fill="none"><path fill="#000" d="M812 388c-58.5-58.5-135-88-212-88v300L388 812c117 117 307 117 424.5 0 117-117 117-307-.5-424M600 100c-276 0-500 224-500 500s224 500 500 500 500-224 500-500-224-500-500-500m0 900c-221 0-400-179-400-400s179-400 400-400 400 179 400 400-179 400-400 400"/></svg>

<svg width="1200" height="1200" viewBox="0 0 1200 1200" fill="none" xmlns="http://www.w3.org/2000/svg"><path d="M812 388C753.5 329.5 677 300 600 300V600L388 812C505 929 695 929 812.5 812C929.5 695 929.5 505 812 388ZM600 100C324 100 100 324 100 600C100 876 324 1100 600 1100C876 1100 1100 876 1100 600C1100 324 876 100 600 100ZM600 1000C379 1000 200 821 200 600C200 379 379 200 600 200C821 200 1000 379 1000 600C1000 821 821 1000 600 1000Z" fill="black"/></svg>
